src/assets/images/home/polygonImg.svg

<svg width="88" height="94" viewBox="0 0 88 94" fill="none" xmlns="http://www.w3.org/2000/svg">
<path d="M34 91.2265C40.188 94.7992 47.812 94.7992 54 91.2265L77.3013 77.7735C83.4893 74.2008 87.3013 67.5983 87.3013 60.453V33.547C87.3013 26.4017 83.4893 19.7992 77.3013 16.2265L54 2.77351C47.812 -0.799156 40.188 -0.799156 34 2.7735L10.6987 16.2265C4.51071 19.7992 0.69873 26.4017 0.69873 33.547V60.453C0.69873 67.5983 4.51071 74.2008 10.6987 77.7735L34 91.2265Z" fill="url(#paint0_linear_2243_341)"/>
<defs>
<linearGradient id="paint0_linear_2243_341" x1="3.5" y1="23" x2="85.5" y2="69" gradientUnits="userSpaceOnUse">
<stop stop-color="#1C98CB"/>
<stop offset="1" stop-color="#181464"/>
</linearGradient>
</defs>
</svg>

<svg xmlns="http://www.w3.org/2000/svg" width="88" height="94" fill="none"><path fill="url(#a)" d="M34 91.227a20 20 0 0 0 20 0l23.301-13.454a20 20 0 0 0 10-17.32V33.547a20 20 0 0 0-10-17.32L54 2.774a20 20 0 0 0-20 0L10.699 16.226a20 20 0 0 0-10 17.32v26.906a20 20 0 0 0 10 17.32z"/><defs><linearGradient id="a" x1="3.5" x2="85.5" y1="23" y2="69" gradientUnits="userSpaceOnUse"><stop stop-color="#1C98CB"/><stop offset="1" stop-color="#181464"/></linearGradient></defs></svg>
